src/assets/icons/category_Sports.svg

<?xml version="1.0" encoding="UTF-8" standalone="no"?>
<svg width="38px" height="38px" viewBox="0 0 38 38" version="1.1" xmlns="http://www.w3.org/2000/svg" xmlns:xlink="http://www.w3.org/1999/xlink">
    <!-- Generator: sketchtool 41.2 (35397) - http://www.bohemiancoding.com/sketch -->
    <title>95CE2D6F-A589-48C4-A327-BD9773148D24</title>
    <desc>Created with sketchtool.</desc>
    <defs></defs>
    <g id="Nav" stroke="none" stroke-width="1" fill="none" fill-rule="evenodd">
        <g id="Categories_Selected_Mobile-" transform="translate(-80.000000, -282.000000)" fill="#AEAEAE">
            <g id="Group" transform="translate(80.000000, 282.000000)">
                <path d="M8.5829375,18.5150625 C9.46327083,18.8008542 10.3681458,18.9496875 11.2682708,18.9496875 C13.2814792,18.9496875 15.2598542,18.2482708 16.8439792,16.9285625 L18.5508125,18.6361875 L12.9529375,24.2340625 C12.6441875,24.5436042 12.6441875,25.0447292 12.9529375,25.3534792 C13.1081042,25.5078542 13.3107708,25.5854375 13.5126458,25.5854375 C13.7153125,25.5854375 13.9179792,25.5078542 14.0723542,25.3534792 L19.6702292,19.7556042 L21.3786458,21.4632292 C19.4770625,23.7456042 18.8666875,26.8481458 19.7747292,29.6878542 C19.7280208,29.6886458 19.6821042,29.6949792 19.6353958,29.6949792 C16.6816875,29.6949792 13.9053125,28.5438958 11.8161042,26.4554792 C9.7276875,24.3670625 8.57739583,21.5898958 8.57739583,18.6361875 C8.57739583,18.5950208 8.58214583,18.5554375 8.5829375,18.5150625 L8.5829375,18.5150625 Z M11.2999375,11.3853125 L15.7111042,15.7956875 C13.7533125,17.3608125 11.1028125,17.8001875 8.7254375,16.8921458 C9.04764583,14.8520208 9.9295625,12.9567708 11.2999375,11.3853125 L11.2999375,11.3853125 Z M12.4209375,10.2674792 C13.9963542,8.9058125 15.8931875,8.0341875 17.9333125,7.71989583 C18.8271042,10.0885625 18.3877292,12.7256042 16.8305208,14.6762708 L12.4209375,10.2674792 Z M27.4554792,10.8161042 C29.5438958,12.9053125 30.6941875,15.6824792 30.6941875,18.6361875 C30.6941875,18.6670625 30.6902292,18.6979375 30.6894375,18.7288125 C27.8584375,17.8366042 24.7709375,18.4501458 22.4980625,20.3438125 L20.7904375,18.6361875 L26.3883125,13.0383125 C26.6970625,12.7287708 26.6970625,12.2276458 26.3883125,11.9181042 C26.0787708,11.6093542 25.5776458,11.6093542 25.2688958,11.9181042 L19.6702292,17.5167708 L17.9626042,15.8083542 C19.8641875,13.5259792 20.4745625,10.4218542 19.5641458,7.5805625 C19.5878958,7.5805625 19.6116458,7.57739583 19.6353958,7.57739583 C22.5891042,7.57739583 25.3662708,8.7276875 27.4554792,10.8161042 L27.4554792,10.8161042 Z M28.0041042,25.8498542 L23.6301458,21.4758958 C25.5713125,19.9266042 28.1917292,19.4864375 30.5485208,20.3604375 C30.2310625,22.3918542 29.3610208,24.2807708 28.0041042,25.8498542 L28.0041042,25.8498542 Z M22.5107292,22.5953125 L26.8862708,26.9716458 C25.3211458,28.3364792 23.4353958,29.2168125 21.4039792,29.5421875 C20.5149375,27.1758958 20.9551042,24.5436042 22.5107292,22.5953125 L22.5107292,22.5953125 Z M19.6353958,31.2719792 C22.8733125,31.2719792 26.1104375,30.0401458 28.5748958,27.5748958 C33.5038125,22.6459792 33.5038125,14.6256042 28.5748958,9.6966875 C23.6459792,4.76777083 15.6248125,4.76777083 10.6966875,9.6966875 C5.76777083,14.6256042 5.76777083,22.6459792 10.6966875,27.5748958 C13.1611458,30.0401458 16.3982708,31.2719792 19.6353958,31.2719792 L19.6353958,31.2719792 Z" id="Fill-34"></path>
            </g>
        </g>
    </g>
</svg>

<svg width="38" height="38" viewBox="0 0 38 38" xmlns="http://www.w3.org/2000/svg"><g id="Nav" fill="none" fill-rule="evenodd"><g id="Categories_Selected_Mobile-" transform="translate(-80 -282)" fill="#AEAEAE"><g id="Group" transform="translate(80 282)"><path d="M8.583 18.515a8.7 8.7 0 0 0 2.685.435 8.713 8.713 0 0 0 5.576-2.021l1.707 1.707-5.598 5.598a.792.792 0 0 0 1.12 1.12l5.597-5.598 1.709 1.707a8.708 8.708 0 0 0-1.604 8.225c-.047 0-.093.007-.14.007-2.953 0-5.73-1.151-7.819-3.24a10.986 10.986 0 0 1-3.239-7.819c0-.041.005-.08.006-.12zm2.717-7.13l4.411 4.41a7.115 7.115 0 0 1-6.986 1.097 10.945 10.945 0 0 1 2.575-5.507zm1.12-1.118a10.944 10.944 0 0 1 5.513-2.547 7.117 7.117 0 0 1-1.102 6.956l-4.41-4.409zm15.035.55a10.99 10.99 0 0 1 3.24 7.82c0 .03-.005.06-.006.092a8.71 8.71 0 0 0-8.19 1.615l-1.709-1.708 5.598-5.598a.792.792 0 0 0-1.12-1.12l-5.598 5.599-1.707-1.709a8.707 8.707 0 0 0 1.601-8.227c.024 0 .048-.004.071-.004 2.954 0 5.731 1.15 7.82 3.24zm.55 15.033l-4.375-4.374a7.12 7.12 0 0 1 6.919-1.116 10.94 10.94 0 0 1-2.545 5.49zm-5.494-3.255l4.375 4.377a10.942 10.942 0 0 1-5.482 2.57 7.116 7.116 0 0 1 1.107-6.947zm-2.876 8.677a12.6 12.6 0 0 0 8.94-3.697c4.929-4.929 4.929-12.95 0-17.878-4.929-4.93-12.95-4.93-17.878 0-4.93 4.929-4.93 12.949 0 17.878a12.599 12.599 0 0 0 8.938 3.697z" id="Fill-34"/></g></g></g></svg>
